X:1
T:Saxony (Hammerschmidt), 78.78.77
T:Saxony (Hammerschmidt), 78.78.77
T:Andreas Hammerschmidt, 1658
T:Public Domain Courtesy of the Cyber Hymnal™
C:Andreas Hammerschmidt, 1658
Z:Public Domain
Z:Courtesy of the Cyber Hymnal™
%%score ( 1 2 ) ( 3 4 )
L:1/8
Q:1/4=110
M:4/4
K:C
V:1 treble 
V:2 treble 
V:3 bass 
V:4 bass 
V:1
 [EG]2 [CG]2 [CA]2 [DA]2 | B2 [FB]2 [Ec]4 | [Gd]2 [Dd]2 [Ec]2 [^Fc]2 | [GB]2 A2 z2 x6 | G8 | %5
 [EG]2 [CG]2 [CA]2 [DA]2 | B2 [FB]2 [Ec]4 | [Gd]2 [Dd]2 [Ec]2 [^Fc]2 | [GB]2 B2 z2 x6 | G8 | %10
 [Ec]2 [^Fc]2 [GB]2 [DB]2 | [EA]2 [DA]2 [B,G]4 | [CG]2 [CG]2 F2 [CE]2 | [CD]2 [B,D]2 C4 |] %14
V:2
 x8 | (DE) x6 | x8 | x2 G4 A4 ^F2 | G8 | x8 | (DE) x6 | x8 | x2 G4 A4 ^F2 | G8 | x8 | x8 | %12
 x4 (A,B,) x2 | x4 C4 |] %14
V:3
 [C,C]2 [E,G,]2 F,2 [D,F,]2 | G,2 [G,,G,]2 [C,G,]4 | [G,,B,]2 [B,,G,]2 [C,G,]2 [A,,C]2 | %3
 [B,,D]2 [G,,D]2 [D,D]4 x4 | [G,,B,]8 | [C,C]2 [E,G,]2 F,2 [D,F,]2 | G,2 [G,,G,]2 [C,G,]4 | %7
 [G,,B,]2 [B,,G,]2 [C,G,]2 [A,,C]2 | [B,,D]2 [G,,D]2 [D,D]4 x4 | [G,,B,]8 | %10
 [A,,A,]2 [A,,C]2 [G,,D]2 [B,,G,]2 | [C,G,]2 [D,^F,]2 [G,,G,]4 | [E,G,]2 [C,E,]2 [D,F,]2 [C,G,]2 | %13
 [F,,A,]2 [G,,G,]2 [C,E,]4 |] %14
V:4
 x4 F,2 x2 | G,2 x6 | x8 | x12 | x8 | x4 F,2 x2 | G,2 x6 | x8 | x12 | x8 | x8 | x8 | x8 | x8 |] %14

